X: 9
T:Hunt the Squirrel
M:4/4
R:reel
L:1/8
Z:added by Alf warnock alf0@rogers.com
K:G
(3DEF|"G"G>B"D"A>F "G"G2D2|G>Bd>e d2B2|G>Bd>e d2B>A|"G"G>B"D"A>F "G"G2:|
d|"C"e>fg2 e>fg2|e>fg>a g2e2|"G"d>ed>c d2B>A|"G"G>B"D"A>F "G"G2:|
% C:\aaa\EnglishCountry\ECD02.abc
